X:1
T:Title
%%score 1 { ( 2 3 ) | ( 4 5 ) }
L:1/8
Q:1/4=100
M:4/4
K:F
V:1 treble nm="Violin"
V:2 treble nm="Grand Piano"
V:3 treble 
V:4 bass 
V:5 bass 
V:1
 z cde d'2 c'2 | z bae g2 f2 | z fed c2 fa | g2 =b2 c'_bag | z cde d'2 c'2 | z d^fa _e'2 d'2 | %6
 f'2 e'd' d'c'ba | =b2 _b2 a4 | c3 d e2 b2 | a3 f c4 | G2 cd e2 c2 |[M:17/16] dfedcBAG3/2 | %12
[M:4/4] F2 DE d2 c2 | z D^FA e2 d2 | z fed dcBA | D2 E2 F4 |] %16
V:2
 C2 z2 d2 c2 | B2 z2 z4 | z DED z A,FA | G2 F2 G4[K:bass] | C2 z2[K:treble] d2 c2 | %5
w: Haldor~Lillenas * *|||||
 z4[K:treble] _e2 d2 | f2 z2 .d2 .B2 | z4 F4 | [EG]2 [EG][FA] [GB]2 [EG]2 | A2 AB c2 A2 | %10
w: |||||
 G2 cd e2 c2 |[M:17/16] [F=Bd]-<[FBd][FBe]-<[FBe]c-[_Bc-][Ac-][Gc]3/2 |[M:4/4] C2 DE d2 c2 | %13
w: |||
 z D^F[FA] [F_e]2 d2 | f2 ed dc[^FB][FA] | D2 E2 F4 |] %16
w: |||
V:3
 z A,DE z =B z A | z EAE G2 F2 | F2 z2 C2 z2 | z F z D z[K:bass] =B, _B,2 | %4
 z A,D[K:treble]E z =B z A | D,D[K:treble]^FA z A z [DGB] | %6
 _A-[DA-][A-e][Ad] =A-[CFAc][C^F]-[A,CFA] | .[G,=B,D]2 [_B,E]2 [F,A,]B, A,2 | x8 | x8 | x8 | %11
[M:17/16] z/ z/ z/ z/ z/ z/ z [C-EG]>C z/ z/ z/ z |[M:4/4] x8 | A,2 z2 z4 | x8 | x8 |] %16
V:4
 z F,D,E, z[K:treble] [F_A] z F | B,2[K:bass] z2 z4 | z [_A,=B,][A,B,D][A,B,] [C,,C,]F,F,=A, | %3
 z [=B,D] z B, [G,C][D,F,] [C,E,]2 | z F,D,E,[K:treble] z [F_A] z F | %5
 z[K:bass] [^F,A,C][F,A,C][F,A,C] D,[F,A,C^F]G,B, | =B,,[_A,=B,][A,B,D][A,B,D] C,=A,D,^F, | %7
 z D,C,C,, z D, C,2 | [C,C]2 [C,C][C,C] [C,C]2 [C,C]2 | [F,CF]2 [F,CF][F,G,F] [F,A,F]2 [F,CF]2 | %10
 [G,CE]2 [G,CE][G,=B,F] [G,CG]2 [G,EG]2 | %11
[M:17/16][K:bass] [G,,G,]-<[G,,G,][G,,G,]-<[G,,G,] z DCB,3/2 | %12
[M:4/4] [F,A,]2 [F,_A,C][F,A,C] [F,A,F]2 [F,=A,F]2 | ^F,2 [D,A,D][D,D] [D,C]2[K:treble] [G,B,G]2 | %14
 [_A,=B,F]2 [A,B,F][A,B,F] [=A,CF][A,CF][K:bass][D,D][D,C] | [G,=B,]2 [C,_B,C]2 [F,A,C]4 |] %16
V:5
 C,2 z2 D2[K:treble] C2 | z ^C[K:bass]A,E, .[G,A,D]2 .[F,A,D]2 | [B,,,=B,,]4 z4 | G,2 F,2 z4 | %4
 C,2 z2[K:treble] D2 C2 | x[K:bass] x7 | x8 | G,,2 z2 F,,4 | x8 | x8 | x8 | %11
[M:17/16][K:bass] z/ z/ z/ z/ z/ z/ z C,-<C, z/ z/ z/ z |[M:4/4] x8 | x6[K:treble] x2 | %14
 x6[K:bass] x2 | x8 |] %16

